!!!SOCIAL_FUNCTION: war songs
!!!PDT:	1929
!!!LING_GROUP: Caddoan
!!!LANG: Non-Tone
!!!REG: Oklahoma
!!!COM: Anon.
!!!OTL: Brown Bear's Song
!!!ODT: <1920//
!!!MPN: Tsastawinahiigat [She led a phony into the ceremony, Effie Blain]
!!!MLC: Pawnee, Oklahoma, United States of America
!! Song was recorded either 1919 or 1920.
!!!AGN: monody
!!!AMT: irregular
!!!RWG: Transcribed pitches, durations, and meters are only approximate.
!! Drum not recorded
**kern
*ICvox
*Ifemale
*clefG2
*k[f#c#]
*M2/4
*MM69
8b
=1
4.b
8f#
*M3/4
=2
16g
[8.f#
4f#]
4e
=3
16b
16f#
8f#
8b
[8b
8b]
8f#
*M2/4
=4
16g
[8.f#
8.f#]
16d
=5
16d
[8.c#
4c#]
=6
4B
4B
=7
8.f#
16f#
16d
8.c#
=8
8.d
16c#
16c#
8.c#
=9
16B
[8.B
8B]
8B
=10
4B
8.b
16b
*M3/4
=11
8.dd
16dd
16b
8.a
8b
8a
=12
2f#
8.f#
16d
*M2/4
=13
16b
8.b
8.b
16f#
=14
16e
8.d
16d
8.d
*M3/4
=15
2c#
16c#+
8.B
*M2/4
=16
8.f#
16f#
16d
8.c#
=17
8.d
16c#
16c#
8.c#
=18
16B
8.B
8B
==
*-
!!!HAO: [no description]
!!!HTX: [no free translation]
!!!CNT: Pawnee
!!!TXO: Pawnee
!!!OCY: United States
!!!OCL: Frances Densmore
!!!YOR: Frances Densmore, "Pawnee Music"
!!!YOR: Bulletin 93, page 68, No. 37
!!!PPR: Smithsonian Institution, Bureau of American Ethnology
!!!PPR: Government Printing Office
!!!PDT: 1926
!!!PPP: Washington, DC, United States of America
!!!YEC: Electronic Copyright 2000 David Huron
!!!YER: September 2000
!!!YEN: United States of America
!!!ENC: David Huron
!!!RDT: September 3, 2000
!!!EEV: Release 1.0
!!!AIN: vox
